DenisNovikLanding/build/img/svg/AE.svg

<svg width="90" height="89" viewBox="0 0 90 89" fill="none" xmlns="http://www.w3.org/2000/svg">
<path d="M4.20239 3.7832H85.9629V84.7881H4.20239V3.7832Z" fill="url(#paint0_radial_254_447)"/>
<path d="M4.20239 3.78375H85.9629V84.7886H4.20239V3.78375ZM0.486816 88.5724H89.6964V0H0.486816V88.5724ZM63.598 42.6945C65.4915 42.6945 66.1703 42.6945 66.349 42.6217C66.349 42.3488 66.4204 42.1669 66.4204 41.985C66.4204 39.9476 65.4558 36.1639 61.5973 36.1639C58.0246 36.1639 56.5063 39.3473 56.1311 42.7127H63.598V42.6945ZM56.0597 47.8789C56.1311 52.9906 58.507 56.4287 64.1696 56.4287C66.3668 56.4287 68.2603 56.1195 70.2253 55.2645C70.4933 55.1554 70.6719 55.1917 70.6719 55.5374V60.2671C70.6719 60.6491 70.5647 60.831 70.2968 61.0311C68.3318 62.0134 65.8667 62.4682 62.8299 62.4682C53.0229 62.4682 49.3431 55.0826 49.3431 46.8784C49.3431 37.9466 53.8804 30.6338 61.8653 30.6338C69.9752 30.6338 72.7976 37.5646 72.7976 43.2038C72.7976 45.0229 72.6905 46.4964 72.494 47.2241C72.4225 47.5333 72.3153 47.6424 72.0116 47.7152C71.2614 47.8244 69.0821 47.9881 65.8131 47.9881H56.0775V47.8789H56.0597ZM36.1242 44.0224C35.0881 39.8203 32.5515 30.6702 31.6226 26.2315H31.5512C30.7652 30.652 28.7288 38.1467 27.2104 44.0224H36.1242ZM25.692 50.1528L22.7624 61.4677C22.691 61.7769 22.5838 61.8861 22.2086 61.8861H16.7246C16.3495 61.8861 16.278 61.7769 16.3495 61.3221L26.9067 23.7394C27.0853 23.0663 27.2104 22.5206 27.2818 20.6287C27.2818 20.3558 27.389 20.2467 27.5855 20.2467H35.3918C35.6597 20.2467 35.7669 20.3194 35.8384 20.6287L47.646 61.3949C47.7175 61.7042 47.646 61.8861 47.3424 61.8861H41.2152C40.9116 61.8861 40.7329 61.7769 40.6615 61.5041L37.6068 50.1528H25.692Z" fill="#D8A1FF"/>
<defs>
<radialGradient id="paint0_radial_254_447" cx="0" cy="0" r="1" gradientUnits="userSpaceOnUse" gradientTransform="translate(31.1549 21.9444) scale(62.1407 61.2673)">
<stop stop-color="#442F55" stop-opacity="0.98"/>
<stop offset="1" stop-color="#12002C"/>
</radialGradient>
</defs>
</svg>

<svg width="90" height="89" fill="none" xmlns="http://www.w3.org/2000/svg"><path d="M4.202 3.783h81.76v81.005H4.203V3.783z" fill="url(#paint0_radial_254_447)"/><path d="M4.202 3.784h81.76v81.005H4.203V3.784zM.487 88.572h89.21V0H.486v88.572zm63.111-45.878c1.894 0 2.572 0 2.751-.072 0-.273.071-.455.071-.637 0-2.037-.964-5.821-4.823-5.821-3.572 0-5.09 3.183-5.466 6.549h7.467v-.019zM56.06 47.88c.071 5.112 2.447 8.55 8.11 8.55 2.197 0 4.09-.31 6.055-1.165.268-.109.447-.072.447.273v4.73c0 .382-.107.564-.375.764-1.965.982-4.43 1.437-7.467 1.437-9.807 0-13.487-7.385-13.487-15.59 0-8.931 4.537-16.244 12.522-16.244 8.11 0 10.933 6.93 10.933 12.57 0 1.819-.108 3.292-.304 4.02-.072.31-.179.418-.482.491-.75.11-2.93.273-6.199.273h-9.736v-.11h-.017zm-19.936-3.857c-1.036-4.202-3.573-13.352-4.501-17.79h-.072c-.786 4.42-2.822 11.915-4.34 17.79h8.913zm-10.432 6.13l-2.93 11.316c-.071.309-.178.418-.553.418h-5.484c-.376 0-.447-.11-.376-.564L26.907 23.74c.178-.673.303-1.218.375-3.11 0-.273.107-.382.303-.382h7.807c.268 0 .375.072.446.382l11.808 40.766c.072.31 0 .491-.304.491h-6.127c-.303 0-.482-.11-.554-.382l-3.054-11.351H25.692z" fill="#D8A1FF"/><defs><radialGradient id="paint0_radial_254_447" cx="0" cy="0" r="1" gradientUnits="userSpaceOnUse" gradientTransform="matrix(62.1407 0 0 61.2673 31.155 21.944)"><stop stop-color="#442F55" stop-opacity=".98"/><stop offset="1" stop-color="#12002C"/></radialGradient></defs></svg>
